libs/ui/packages/crypto-icons/src/svg/SLS.svg

<svg width="24" height="24" viewBox="0 0 24 24" fill="none">
<path d="M5.71725 15.5333C5.54546 15.1628 5.41808 14.7734 5.33775 14.373C5.29147 14.1622 5.26212 13.948 5.25 13.7325H5.9205C5.93582 13.9058 5.96086 14.0781 5.9955 14.2485C6.06825 14.6003 6.17775 14.9498 6.32775 15.2685C6.72975 16.1205 7.34025 16.6065 8.22675 16.6065C8.91975 16.6065 9.45675 16.329 9.83475 15.84C10.1557 15.4268 10.3372 14.8785 10.3372 14.418C10.3372 13.8278 10.1138 13.3928 9.6675 13.0245C9.3045 12.7245 8.88675 12.5145 8.02425 12.156L7.872 12.093C6.975 11.7218 6.561 11.5178 6.15825 11.1998C5.60175 10.7603 5.30625 10.215 5.30625 9.51678C5.30625 8.68053 5.607 7.97178 6.1455 7.47078C6.65616 7.00334 7.32447 6.74593 8.01675 6.75003C8.97675 6.75003 9.7095 7.14978 10.197 7.85028V6.89778H12.363V16.458H13.0065V13.7753C13.0054 13.7533 13.0054 13.7313 13.0065 13.7093L13.677 13.7318V13.7655C13.6902 13.9282 13.7127 14.09 13.7445 14.25C13.8142 14.5988 13.9223 14.949 14.0723 15.2678C14.472 16.119 15.0833 16.6058 15.969 16.6058C16.662 16.6058 17.199 16.3283 17.577 15.8393C17.898 15.426 18.0795 14.8778 18.0795 14.4173C18.0795 13.827 17.856 13.392 17.4097 13.0238C17.0467 12.7238 16.629 12.5138 15.7665 12.1553L15.6143 12.0923C14.7172 11.721 14.3033 11.517 13.9005 11.199C13.344 10.7595 13.0485 10.2143 13.0485 9.51603C13.0485 8.67978 13.3492 7.97103 13.8878 7.47003C14.3985 7.00286 15.0668 6.74572 15.759 6.75003C16.719 6.75003 17.4518 7.14978 17.9393 7.85028V6.93828H18.6105V10.2548H17.9393C17.9393 9.56178 17.7803 8.85978 17.4675 8.34153C17.0985 7.72878 16.5435 7.39428 15.759 7.39428C15.2397 7.39051 14.738 7.58282 14.3542 7.93278C13.9493 8.31078 13.719 8.85153 13.719 9.51603C13.719 10.011 13.9185 10.3785 14.3265 10.701C14.664 10.9673 15.042 11.1533 15.8798 11.5005L16.032 11.5635C16.9567 11.9468 17.415 12.1785 17.847 12.5348C18.4372 13.0223 18.75 13.6328 18.75 14.4173C18.75 15.0143 18.5235 15.6968 18.1155 16.2248C17.6137 16.872 16.881 17.25 15.969 17.25C15.3368 17.25 14.7945 17.058 14.349 16.7025C14.0824 16.4869 13.855 16.2268 13.677 15.9338V17.1023H11.6925V7.54203H10.8675V10.2548H10.197C10.197 9.56178 10.038 8.85978 9.72525 8.34153C9.35625 7.72878 8.80125 7.39428 8.01675 7.39428C7.4974 7.39051 6.99575 7.58282 6.612 7.93278C6.207 8.31078 5.97675 8.85153 5.97675 9.51603C5.97675 10.011 6.17625 10.3785 6.58425 10.701C6.92175 10.9673 7.29975 11.1533 8.1375 11.5005L8.28975 11.5635C9.2145 11.9468 9.67275 12.1785 10.1047 12.5348C10.695 13.0223 11.0078 13.6328 11.0078 14.4173C11.0078 15.0143 10.7813 15.6968 10.3733 16.2248C9.8715 16.872 9.13875 17.25 8.22675 17.25C7.5945 17.25 7.05225 17.058 6.60675 16.7025C6.33344 16.4816 6.10115 16.2142 5.9205 15.9128V17.0618H5.25V13.7318H5.9205V15.9128C5.84595 15.79 5.7781 15.6634 5.71725 15.5333Z" fill="#8E9495"/>
</svg>

<svg width="24" height="24" viewBox="0 0 24 24" fill="none"><path fill="#8e9495" d="M5.717 15.533a5.2 5.2 0 0 1-.38-1.16 4 4 0 0 1-.087-.64h.67a4.6 4.6 0 0 0 .408 1.535c.402.852 1.012 1.338 1.899 1.338.693 0 1.23-.277 1.608-.766.32-.413.502-.961.502-1.422 0-.59-.223-1.025-.67-1.393-.362-.3-.78-.51-1.643-.869l-.152-.063c-.897-.371-1.311-.575-1.714-.893-.556-.44-.852-.985-.852-1.683 0-.836.301-1.545.84-2.046a2.75 2.75 0 0 1 1.87-.721c.96 0 1.694.4 2.181 1.1v-.952h2.166v9.56h.644v-2.749l.67.023v.034q.02.244.068.484c.07.349.177.699.327 1.018.4.851 1.011 1.338 1.897 1.338.693 0 1.23-.278 1.608-.767.321-.413.502-.961.502-1.422 0-.59-.223-1.025-.67-1.393-.362-.3-.78-.51-1.642-.869l-.153-.063c-.897-.371-1.31-.575-1.714-.893-.556-.44-.851-.985-.851-1.683 0-.836.3-1.545.839-2.046a2.75 2.75 0 0 1 1.871-.72c.96 0 1.693.4 2.18 1.1v-.912h.671v3.317h-.67c0-.693-.16-1.395-.473-1.913-.368-.613-.923-.948-1.708-.948a2.06 2.06 0 0 0-1.405.539c-.405.378-.635.919-.635 1.583 0 .495.2.863.607 1.185.338.266.716.452 1.554.8l.152.063c.925.383 1.383.614 1.815.97.59.488.903 1.099.903 1.883 0 .597-.227 1.28-.634 1.808-.502.647-1.235 1.025-2.147 1.025-.632 0-1.174-.192-1.62-.547a3 3 0 0 1-.672-.77v1.17h-1.984V7.541h-.825v2.713h-.671c0-.693-.159-1.395-.472-1.913-.369-.613-.924-.948-1.708-.948a2.06 2.06 0 0 0-1.405.539c-.405.378-.635.919-.635 1.583 0 .495.2.863.607 1.185.338.266.716.452 1.553.8l.153.063c.925.383 1.383.614 1.815.97.59.488.903 1.099.903 1.883 0 .597-.227 1.28-.635 1.808-.502.647-1.234 1.025-2.146 1.025-.633 0-1.175-.192-1.62-.547a3 3 0 0 1-.687-.79v1.149h-.67v-3.33h.67v2.18a4 4 0 0 1-.203-.379"/></svg>
